X:2613
T:Captain Campbell
M:C
C:Trad.
A:Cape Breton
R:Strathspey
H:Transcribed by Wil Macaulay (wil@syndesis.com)
H:Learned from David Greenberg spring 1994.
K:Am
L:1/8
A | E<AA>B c>AB<G | D<GG>A B>d c/B/A/G/ | E<AA>B c>Bc<e | d<Bg>B A/A/A A :|
B | A<aa>g e>dc<e | d>eg>e d/c/B/A/ GB | A<aa>g e>dc<e | d<Bg>B A/A/A AB |
A<aa>g e>dc<e | d>eg>e d/c/B/A/ GB | c<Ad>B e>dc<e | d<Bg>B A/A/A A ||


